!!!!SEGMENT: pl-wn--mus-iii-123-982--001-007_wieniawski-henryk--l-ecole-moderne-etudes-caprices-pour-violon-seul-op-10-7-la-cadenza.krn
!!!cenid: 18xx:3820
!!!COM: Wieniawski, Henryk
!!!COM-rismID: pe137176
!!!CDT: 1835/07/10-1880/03/31
!!!CNT:
!!!GTL: L'école moderne.Etudes-caprices pour violon seul op. 10
!!!OTL: 7. La Cadenza
!!!OMV: 007
!!!PDT:
!!!AGN: Secular; Etude
!!!YEC: Copyright 2022 Narodowy Instytut Fryderyka Chopina (https://polishscores.org)
!!!YEM: License CC-BY-4.0 (https://creativecommons.org/licenses/by/4.0)
!!!SMS-siglum: PL-Wn
!!!SMS-shelfmark: Mus.III.123.982
!!!SMS-shelfwork: 001-007 G
!!!SMS-variant:
!!!SMS-altvar:
!!!NIFC-rismSourceID:
!!!NIFC-rismChildID:
!!!NIFC-islandoraID: none
!!!URL-pdf-islandora:
!!!URL-scan: https://polona2.pl/item/l-ecole-moderne-etudes-caprices-pour-violon-seul-op-10,MTE2OTgzMTMy/4 @EN{Scan on Polona} @PL{Skany w portalu Polona}
!!!IIIF: https://polona2.pl/iiif/item/MTE2OTgzMTMy/manifest.json
!!!ONB-nifc:
!!!OMD: Largo.
!!!OMD-mod: Largo
!!!AIN: 1 violn
!!!key: A-
**kern	**fing	**dynam
*part1	*	*
*staff1	*	*
*I"[Violon seul]	*	*
*mI"Violino	*	*
*I'	*	*
*Ivioln	*	*
*ICstr	*	*
*IGsolo	*	*
*clefG2	*	*
*kcancel	*	*
*k[b-e-a-d-]	*	*
*A-:	*	*
*M2/2	*	*
*met(c|)	*	*
*mmet(c|)	*	*
=1	=1	=1
*xywh-16:551,385,3448,1224	*	*
!LO:MO:mod=!LO&colon;TX&colon;b&colon;i&colon;t=Avec beaucoup de puissance de son	!	!
!LO:TX:a:i:t=Avec beaucoup de paissance de son.	!	!
[1A-	.	.
=2	=2	=2
!LO:MO:mod=!null:null	!	!
!LO:N:xstem:cue:vis	!	!
2A-/]	.	.
2c/	.	.
=3	=3	=3
[1a- [1f	.	.
=4	=4	=4
!LO:MO:mod=!null:null	!	!
!LO:N:xstem:cue:vis	!	!
2a-] 2f/]	.	.
2cc 2e-/	.	.
=5	=5	=5
8qd-/	.	.
[1ff [1a-	.	.
=6	=6	=6
!LO:MO:mod=!null:null	!	!
!LO:N:xstem:cue:vis	!	!
2ff] 2a-/]	.	.
!LO:MO:mod=*null:null	!	!
*Xbrackettup	*	*
!LO:TUP:b	!	!
6ee- 6f 6An/	.	.
6B-/	.	.
6c/	.	.
=7	=7	=7
8qB-/	.	.
[1dd- [1f	.	.
=8	=8	=8
!LO:MO:mod=!null:null	!	!
!LO:N:xstem:cue:vis	!	!
2dd-] 2f/]	.	.
(4.f-X 4.A-/	.	.
8bb- 8dd-\)	.	.
!!LO:LB:g=original
=9	=9	=9
*xywh-16:479,1471,3507,634	*	*
(4.bb- 4.dd- 4.e- 4.G/	.	.
8bbb- 8ddd-\)	.	.
([2bbb- [2ddd-\	.	.
=10	=10	=10
*	*^	*
!LO:MO:mod=!null:null	!	!	!
!LO:N:xstem:cue:vis	!	!	!
4bbb-] 4ddd-]\	.	.	.
4ggg 4bb-\)	4	3	.
4eee- 4gg\	4	3	.
4ddd- 4ee-\	3	1	.
*	*v	*v	*
=11	=11	=11
4ccc 4aa-^\	.	.
4eee- 4gg^\	.	.
4aa- 4ff^\	.	.
4ccc 4ee-^\	.	.
=12	=12	=12
4ff 4dd-^\	.	.
4aa- 4cc^\	.	.
4dd- 4b-^\	.	.
[4ff 4a-^\	.	.
=13	=13	=13
*^	*	*
(4ff/]	2g^\	.	.
2ee-^/	.	.	.
.	2e-^\	.	.
[4dd-^/)	.	.	.
=14	=14	=14	=14
(4dd-/]	2a-^\	.	.
2cc^/	.	.	.
.	2d-^\	.	.
4b-^/)	.	.	.
!!LO:LB:g=original
=15	=15	=15	=15
*	*	*^	*
*xywh-16:515,2018,3426,503	*xywh-16:515,2018,3426,503	*	*	*
1a-	(2c\	2	1	.
.	2dn\)	.	3	.
*v	*v	*	*	*
*	*v	*v	*
=16	=16	=16
!	!	!LO:MO:mod=!null:null
!	!	!LO:HP:a
!	!	!LO:MO:mod=.
(4g 4e-^>/	.	<
!	!	!LO:MO:null:mod=<
4e-/	.	.
8qg/	.	.
4f/	.	.
!	!	!LO:MO:mod=[[
4e-/)	.	[
=17	=17	=17
8qa-/	.	.
[1A-	.	.
=18	=18	=18
!LO:MO:mod=!null:null	!	!
!LO:N:xstem:cue:vis	!	!
2A-/]	.	.
2c/	.	.
=19	=19	=19
[1a- [1f	.	.
=20	=20	=20
!LO:MO:mod=!null:null	!	!
!LO:N:xstem:cue:vis	!	!
2a-] 2f/]	.	.
2cc 2e-/	.	.
=21	=21	=21
[1bn [1dn	.	.
=22	=22	=22
!LO:MO:mod=!null:null	!	!
!LO:N:xstem:cue:vis	!	!
2bn] 2d/]	.	.
!LO:TUP:b	!	!
6gg 6bn 6dn 6G/	.	.
6An/	.	.
6Bn/	.	.
=23	=23	=23
(16qqc/LL	.	.
16qqg/JJ)	.	.
[1een 1b-X	.	.
!!LO:LB:g=original
=24	=24	=24
*^	*	*
*xywh-16:449,2463,3616,554	*xywh-16:449,2463,3616,554	*	*
!LO:SIC:o=1eenX]	!	!	!
1ee]	(6b-X^\	.	.
.	6b-^\	.	.
.	6cc^\	2	.
.	6dd-X^\	2	.
.	6cc^\	.	.
.	6b-^\)	.	.
*v	*v	*	*
=25	=25	=25
4.ff 4.cc 4.a-\	.	.
!LO:TX:b:i:t=appassionato.:mod=appasionato	!	!
8fff 8ccc 8aa-\	.	.
[2fff [2ccc [2aa-\	.	.
=26	=26	=26
8fff] 8ccc] 8aa-\]	.	.
8ffL 8cc 8a-`\	.	.
8een 8cc 8g`\	.	.
8ffJ 8cc 8a-`\	.	.
8eeL 8cc 8g`\	.	.
8ff 8cc 8a-`\	.	.
8ee 8cc 8g`\	.	.
8ffJ 8cc 8a-`\	.	.
=27	=27	=27
4.aa- 4.bn 4.f\	.	.
8aaa- 8bbn 8ff\	.	.
4.aaa- 4.bb 4.ff\	.	.
8Bn/	.	.
=28	=28	=28
!LO:TR:acc=n	!	!
(1Bnt	.	.
16qqA#/LL	.	.
16qqB/JJ)	.	.
=29	=29	=29
2c/	.	.
2cc\	.	.
!!LO:LB:g=original
=30	=30	=30
*xywh-16:420,2900,3623,532	*	*
8qee-/	.	.
(4dd-^\	.	.
4cc^\	.	.
!LO:SIC:o=4a-^>/	!	!
4a-^	.	.
!LO:SIC:o=4f^>/)	!	!
4f^	.	.
=31	=31	=31
[1c	.	.
=32	=32	=32
8c/L]	.	.
(8c^/	.	.
8Bn^/	.	.
8c^/J	.	.
8B^/L	.	.
8c^/	.	.
8qe-/	.	.
8d-^/	.	.
8c^/J)	.	.
=33	=33	=33
(>2c;u/	.	.
!LO:MO:mod=*cue	!	!
*null	*	*
*Xtuplet	*	*
*rscale:4	*	*
20c^/	.	.
20en^/	.	.
20g^/	.	.
!LO:SIC:o=20b-X^/	!	!
20b-X^	.	.
!LO:SIC:o=20bn^/	!	!
20b^	.	.
!LO:SIC:o=20cc^/	!	!
20cc^	.	.
!LO:SIC:o=20een^/	!	!
20ee^	1	.
!LO:SIC:o=20gg^/	!	!
20gg^	.	.
!LO:SIC:o=20bb-X^/	!	!
20bb-X^	.	.
!LO:SIC:o=20bbn^/)	!	!
20bb^)	.	.
!LO:MO:mod=*Xcue	!	!
*null	*	*
*rscale:1	*	*
*tuplet	*	*
=34	=34	=34
*	*	*^
!	!	!	!LO:MO:mod=!LO&colon;HP&colon;t=diminuendo
!LO:TR:acc=-	!	!	!LO:HP:t=dimin.
1ccct	.	>]	>
*	*	*v	*v
!!LO:LB:g=original
=35||	=35||	=35||
!!!OMD: CADENZA.
!!!OMD-mod: Cadenza
*k[b-]	*	*
*xywh-16:391,3294,3630,546	*	*
2cccT;\	.	.
*cue	*	*
*rscale:2	*	*
!LO:MO:mod=!null:null	!	!
!LO:TUP:a	!	!
(112bbn\LLLL	1	.
!	!LO:MO:null:mod=1	!
112ccc\	.	.
!LO:MO:mod=!LO&colon;TX&colon;a&colon;t=à la 5me position&colon;problem&colon;text with extention lines	!	!
!LO:TX:a:i:t=à la 5me position:problem:text with extention lines	!	!
112ddd\	.	.
112ccc\	.	.
112fff\	4	.
112eee\	4	.
112ddd\	.	.
112ccc\	.	.
112bb\	.	.
112ccc\	.	.
112ddd\	.	.
112ccc\	.	.
!	!LO:MO:null:mod=1	!
112bb-X\	.	.
112aa\	.	.
112gg\	.	.
112ff\	.	.
112ee\	1	.
112ff\	1	.
112gg\	.	.
112ff\	.	.
112bb-\	.	.
112aa\	.	.
112gg\	.	.
112ff\	.	.
112ee\	.	.
112dd\	.	.
112cc\	.	.
112bn\	.	.
112dd\	.	.
112cc\	.	.
112ff\	4	.
112ee\	4	.
112dd\	.	.
112cc\	.	.
112b\	.	.
112cc\	.	.
112dd\	.	.
112cc\	.	.
112b-X\	.	.
112a\	.	.
112g\	.	.
112f\	.	.
112e\	.	.
112f\	.	.
112g\	.	.
112f\	.	.
112b-\	4	.
112a\	4	.
112g\	.	.
112f\	.	.
112e\	.	.
112g\	.	.
112f\	.	.
112e\	.	.
112f\	.	.
112d\JJJJ)	2	.
*rscale:1	*	*
*Xcue	*	*
!!LO:LB:g=original
=-	=-	=-
*xywh-16:661,3710,3383,634	*	*
([2c;/	.	.
*rscale:2	*	*
*cue	*	*
!LO:MO:mod=!null:null	!	!
!LO:TUP:a	!	!
112c\LLLL]	.	.
112A\	.	.
112c\	.	.
!LO:MO:mod=!LO&colon;TX&colon;a&colon;t=sul D&colon;problem&colon;text with extention lines	!	!
!LO:TX:a:i:t=Sul D:problem:text with extention lines	!	!
112e\	.	.
112f\	.	.
112a\	4	.
112dd\	4	.
112a\	.	.
112cc\	.	.
112a\	.	.
112cc\	.	.
!LO:MO:mod=!LO&colon;TX&colon;a&colon;t=sul A&colon;problem&colon;text with extention lines	!	!
!LO:TX:a:i:t=Sul A:problem:text with extention lines	!	!
112ee\	1	.
112ff\	.	.
112aa\	4	.
112ddd\	4	.
112aa\	.	.
112ccc\	.	.
112aa\	.	.
112ccc\	.	.
!LO:MO:mod=!LO&colon;TX&colon;a&colon;t=sul E	!	!
!LO:TX:a:i:t=Sul E	!	!
112eee\	1	.
112fff\	.	.
112aaa\	4	.
112dddd\	4	.
112aaa\	.	.
112cccc\)	3	.
(112ffffv\	4	.
112cccc\	3	.
112bbb-\	2	.
112aaa\	1	.
112cccc\	3	.
112aaa\	3	.
112ggg\	.	.
!LO:MO:mod=!LO&colon;TX&colon;a&colon;t=à la position&colon;problem&colon;text with extention lines	!	!
!LO:TX:a:i:t=à la posit.	!LO:MO:mod=(1)	!
112fff\	1	.
112aaa\	.	.
112fff\	.	.
112ddd\	.	.
112ccc\	.	.
112fff\	.	.
112ccc\	.	.
112bb-\	.	.
!LO:MO:mod=!LO&colon;TX&colon;a&colon;t=à la position&colon;problem&colon;text with extention lines	!	!
!LO:TX:a:i:t=à la posit.	!	!
112aa\	1	.
112ccc\	.	.
112aa\	.	.
112gg\	.	.
112ff\	.	.
112aa\	.	.
112ff\	.	.
112dd\	3	.
112cc\	2	.
112ff\	4	.
112cc\	2	.
112b-\	1	.
112a\	2	.
112cc\	4	.
112a\	2	.
112g\JJJJ)	3	.
*Xcue	*	*
=-	=-	=-
*rscale:1	*	*
16qqe/LL	.	.
16qqf/	.	.
16qqg/JJ	.	.
(2fT<;u/	.	.
*cue	*	*
32e\LLL	.	.
32f\	.	.
32a\	.	.
32f\	.	.
32c\	.	.
32A/	.	.
32c\	.	.
32f\	.	.
!LO:MO:mod=!LO&colon;TX&colon;a&colon;t=sul A&colon;problem&colon;text with extention lines	!	!
!LO:TX:a:i:t=Sul A:problem:text with extention lines	!	!
32a\	0	.
32cc\	.	.
32ff\	1	.
32aa\	3	.
32ccc\	4	.
32aa\	3	.
32ff\	1	.
32cc\JJJ)	2	.
!!LO:LB:g=original
=-	=-	=-
*xywh-16:551,4220,3434,809	*	*
(32av/LLL	.	.
32f/	.	.
32c/	.	.
32A/	.	.
32c/	.	.
32f/	.	.
32a/	.	.
32cc\	.	.
32ff\	1	.
32aa\	3	.
32ccc\	1	.
32fff\	1	.
32aaa\	3	.
32cccc\	4	.
32aaa\	3	.
32fff\JJJ)	1	.
*rscale:1	*	*
=-	=-	=-
!LO:MO:mod=!null:null	!	!
!LO:TUP:a	!	!
(36cccu\LLL	3	.
36aa\	1	.
36ff\	3	.
36cc\	2	.
36a/	0	.
36f/	.	.
36c/	.	.
36A/	.	.
36c/	.	.
36f/	.	.
36a/	.	.
36cc\	.	.
!LO:TX:t=P:problem:oznaczenie sekstoli	!	!
!LO:TUP:a:problem:klamra łukowa	!	!
36ff\	1	.
36aa\	.	.
36ccc\	.	.
36fff\	1	.
*8va	*	*
36aaa\	2	.
36cccc\JJJ)	3	.
!	!LO:MO:mod=*null:null	!
*Xcue	*below	*
8ffffv\L	4	.
8ggggu\J	4	.
4aaaa;v\	4	.
!	!LO:MO:mod=*null:null	!
*X8va	*above	*
=-	=-	=-
8r	.	.
!LO:TX:b:i:t=con fuoco.:mod=con fuoco	!	!
8aa 8cc 8fu\	.	.
8aaL 8cc 8eu\	.	.
8aaJ 8cc 8e-Xu\	.	.
8aaL 8cc 8du\	.	.
8ccc 8cc 8du\	.	.
8aa 8cc 8du\	.	.
8bb-J 8cc 8du\	.	.
=-	=-	=-
!LO:SIC:o=(8dL 8Gu\	!	!
(8dL 8Gu	.	.
!LO:SIC:o=8ggJ 8b-\)	!	!
8ggJ 8b-)	.	.
!LO:N:n=2:vis=2	!	!
!LO:SIC:o=8gggg 8rccc 8rgg\	!	!
8gggg 8rccc 8rgg`v	.	.
8r	.	.
2r;	.	.
!!LO:LB:g=original
=-	=-	=-
*xywh-17:46,281,3635,994	*	*
2dddT;\	.	.
*rscale:2	*	*
*cue	*	*
!LO:MO:mod=!null:null	!	!
!LO:TUP:a	!	!
(112ccc#X\LLLL	1	.
!	!LO:MO:null:mod=1	!
112ddd\	.	.
!LO:MO:mod=!LO&colon;TX&colon;a&colon;t=à la position&colon;problem&colon;text with extention lines	!	!
!LO:TX:a:i:t=à la position:problem:text with extention lines	!	!
112eee-X\	.	.
112ddd\	.	.
112ggg\	4	.
112fff\	4	.
112eee-\	.	.
112ddd\	.	.
112ccc#\	.	.
112ddd\	.	.
112eee-\	.	.
112ddd\	.	.
112ccc#X\	.	.
112bb-\	.	.
112aa\	.	.
112gg\	.	.
112ff#X\	.	.
112gg\	.	.
112aa\	.	.
112gg\	.	.
112ccc#\	4	.
112bb-\	3	.
112aa\	.	.
112gg\	.	.
112ffn\	.	.
112ee-X\	.	.
112dd\	.	.
112cc#X\	.	.
112ee-\	.	.
112dd\	.	.
112gg\	4	.
112ff\	4	.
112ee-\	.	.
112dd\	.	.
112cc#\	.	.
112dd\	.	.
112ee-\	.	.
112dd\	.	.
112ccn\	.	.
112b-\	.	.
112a\	.	.
112g\	.	.
112f#X\	.	.
112g\	.	.
112a\	.	.
112g\	.	.
112cc\	4	.
112b-\	4	.
112a\	.	.
112g\	.	.
112f#\	.	.
112a\	.	.
112g\	.	.
112f#\	.	.
112g\	1	.
112eny\JJJJ)	3	.
*rscale:1	*	*
*Xcue	*	*
!!LO:LB:g=original
=-	=-	=-
*xywh-17:40,1079,3497,573	*	*
(2d;u/	.	.
*rscale:2	*	*
*cue	*	*
!LO:MO:mod=!null:null	!	!
!LO:TUP:a	!	!
112d\LLLL	.	.
112B-X\	1	.
112d\	3	.
!LO:MO:mod=!LO&colon;TX&colon;a&colon;t=sul D&colon;problem&colon;text with extention lines	!	!
!LO:TX:a:i:t=Sul D:problem:text with extention lines	!	!
112f#X\	1	.
112g\	2	.
112b-X\	4	.
112ee-X\	4	.
112b-\	1	.
112dd\	.	.
112b-\	.	.
112dd\	.	.
!LO:MO:mod=!LO&colon;TX&colon;a&colon;t=sul A&colon;problem&colon;text with extention lines	!	!
!LO:TX:a:i:t=Sul A:problem:text with extention lines	!	!
112ff#X\	1	.
112gg\	.	.
112bb-X\	4	.
112eee-X\	4	.
112bb-\	1	.
112ddd\	.	.
112bb-\	.	.
112ddd\	.	.
*8va	*	*
112fff#X\	1	.
112ggg\	2	.
112bbb-X\	4	.
112eeee-X\	4	.
112bbb-\	1	.
112dddd\)	3	.
(112ggggv\	4	.
112dddd\	3	.
112ccccny\	2	.
112bbb-\	1	.
112dddd\	3	.
112bbb-\	1	.
112aaa\	2	.
!LO:MO:mod=!LO&colon;TX&colon;a&colon;t=à la position	!	!
!LO:TX:a:i:t=a la position:problem:text with extention lines	!	!
112ggg\	1	.
112bbb-\	.	.
112ggg\	.	.
112eee-\	.	.
*X8va	*	*
!LO:TX:a:i:t=loco	!	!
112ddd\	.	.
112ggg\	.	.
112ddd\	.	.
112ccc\	.	.
112bb-\	.	.
112ddd\	.	.
112bb-\	.	.
!LO:MO:mod=!LO&colon;TX&colon;a&colon;t=à la position	!	!
!LO:TX:a:i:t=à la position:problem:text with extention lines	!	!
112aa\	2	.
112gg\	.	.
112bb-\	.	.
112gg\	.	.
112ee-\	.	.
112dd\	.	.
112gg\	.	.
112dd\	.	.
112cc\	1	.
112b-\	1	.
112dd\	3	.
112b-\	1	.
112a\JJJJ)	2	.
*rscale:1	*	*
*Xcue	*	*
!!LO:LB:g=original
=-	=-	=-
*xywh-17:61,1536,3468,573	*	*
(16qqf#X/LL	.	.
16qqg/	.	.
16qqa/JJ)	.	.
(2gT<u/;	.	.
*cue	*	*
!LO:MO:mod=!null:null	!	!
!LO:TUP:a:r=8:num=6	!	!
48f#y\LLL	.	.
48g\	.	.
48b-\	.	.
48g\	.	.
48d\	.	.
48B-\	.	.
!LO:MO:mod=!null:null	!	!
!LO:TUP:a:r=8:num=6	!	!
48G\	.	.
48B-\	.	.
48d\	.	.
48g\	.	.
48b-\	.	.
48dd\	1	.
!LO:MO:mod=!null:null	!	!
!LO:TUP:a:r=8:num=6	!	!
48ff#X\	1	.
48gg\	2	.
48bb-\	4	.
48gg\	2	.
48dd\	3	.
48b-\	1	.
!LO:MO:mod=!null:null	!	!
!LO:TUP:a:r=8:num=6	!	!
48g\	3	.
48d\	0	.
48B-\	2	.
48d\	0	.
48g\	1	.
48b-\JJJ)	3	.
=-	=-	=-
!LO:MO:mod=*null:null	!	!
*Xtuplet	*	*
(58dd\LLL	1	.
58gg\	1	.
58bb-\	.	.
58ddd\	.	.
58ggg\	1	.
58bbb-\	3	.
58dddd\	4	.
58bbb-\	3	.
58ggg\	1	.
58ddd\	4	.
58bb-\	2	.
58gg\	4	.
58dd\	1	.
58b-\	3	.
58g\	1	.
58d\	0	.
58B-\	.	.
58G\	.	.
58B-\	.	.
58d\	.	.
58g\	1	.
58b-\L	.	.
58dd\	.	.
58gg\	1	.
58bb-\	.	.
58ddd\	.	.
*8va	*	*
58ggg\	1	.
58bbb-\	2	.
58dddd\JJJJ)	3	.
*Xcue	*	*
!!LO:LB:g=original
=-	=-	=-
*xywh-17:54,1979,3511,558	*	*
8gggg\L	.	.
8aaaa\J	.	.
4bbbb-;\	.	.
*X8va	*	*
=-	=-	=-
8r	.	.
8ddd 8eeny 8b-u\	.	.
8cccL 8ffny 8au\	.	.
8bb- 8cc 8eu\	.	.
8bb- 8cc 8fnyu\	.	.
8aaJ 8cc 8fu\	.	.
4r;	.	.
=-	=-	=-
(2Bn;u/	.	.
*cue	*	*
!LO:SIC:o=56Bn\LLL	!	!
56BLLL	.	.
56d\	.	.
56a-X\	.	.
56g\	.	.
56f\	.	.
56d\	.	.
56f\	.	.
56a-\	.	.
56bn\	.	.
56dd\	.	.
56aa-X\	4	.
56gg\	.	.
56ff\	.	.
56dd\	.	.
56ff\	.	.
56aa-\	.	.
56bbn\	.	.
56ddd\	.	.
56aaa-X\	4	.
56ggg\	.	.
56fffT\	.	.
56eeen\	.	.
56fff\	.	.
56ggg\	.	.
56aaa-T\	.	.
56ggg\	.	.
56aaa-\	.	.
56bbb-\JJJ)	.	.
!!LO:LB:g=original
=-	=-	=-
*xywh-17:54,2400,3562,616	*	*
*rscale:2	*	*
(64ccccv\LLL	4	.
64ccc\	1	.
64ddd-X\	2	.
64cccc\	.	.
64bbb-\	.	.
64ddd-\	.	.
64ccc\	.	.
64aaa-X\	2	.
64ggg\	2	.
64bb-y\	1	.
64ddd-\	3	.
64bbb-\	4	.
64ggg\	2	.
64bb-\	1	.
64bbn\	2	.
64fff\	1	.
64eeeno\)	1	.
(64ccu\	1	.
64dd-X\	2	.
64ccc\	.	.
64bb-X\	.	.
64dd-\	.	.
64cc\	.	.
64aany\	2	.
64gg\	2	.
64b-X\	.	.
64dd-\	.	.
64bb-\	.	.
64gg\	.	.
64b-\	1	.
64bn\	2	.
64ff\	1	.
64een\)	0	.
(64cv\	1	.
64d-X\	2	.
64cc\	.	.
64b-X\	.	.
64d-\	.	.
64c\	1	.
64any\	2	.
64g\	2	.
64B-y\	1	.
64d-\	3	.
64b-\	4	.
64g\	2	.
64B-\	1	.
64Bn\	2	.
64f\JJJ)	1	.
(64e\LLL	.	.
64G\	.	.
64c\	.	.
64dny\	.	.
64e\	.	.
64g\	.	.
64bn\	1	.
64cc\	.	.
64ee\	.	.
64gg\	.	.
64bbn\	1	.
64ccc\	.	.
*8va	*	*
64eee\	.	.
64ggg\	.	.
64bbbn\	1	.
64cccc\JJJ)	.	.
*rscale:1	*	*
*Xcue	*	*
=-	=-	=-
1eeee\	.	.
*X8va	*	*
!!LO:LB:g=original
=-	=-	=-
*xywh-17:90,2886,3519,580	*	*
*cue	*	*
!LO:N:vis=16	!	!
32r	.	.
(32G\LLL	.	.
32c\	.	.
32d\	.	.
32e-X\	.	.
32g\	.	.
32bn\	1	.
32cc\	.	.
32ee-X\	.	.
32gg\	.	.
32bbn\	1	.
32ccc\	.	.
*8va	*	*
32eee-X\	.	.
32ggg\	.	.
32bbbn\	1	.
32cccc\JJJ)	.	.
*Xcue	*	*
(1eeee-Xv	.	.
=-	=-	=-
*rscale:2	*	*
*X8va	*	*
*cue	*	*
!LO:TX:b:i:t=sur deux cordes.:mod=sur deux cordes	!	!
(96eeee-X\LLL)	4	.
96dddd-X\	3	.
96bbb-X\	1	.
96ggg\	3	.
96fff\	2	.
96eee-X\	1	.
96ddd-X\	1	.
96cccc\	3	.
96bbb-\	2	.
96ddd-\	1	.
96bb-X\	1	.
96aaa-X\	3	.
96ggg\	2	.
96bb-\	1	.
96gg\	3	.
96fff\	4	.
96eee-X\	4	.
96ddd-X\	3	.
96bb-\	1	.
96gg\	3	.
96ff\	2	.
96ee-X\	1	.
96dd-X\	1	.
96ccc\	3	.
96bb-\	2	.
96dd-\	1	.
96b-y\	1	.
96aa-X\	3	.
96gg\	2	.
96b-\	1	.
96g\	3	.
96ff\	4	.
96ee-X\	4	.
96dd-X\	3	.
96b-\	1	.
96g\	3	.
96f\	2	.
96e-X\	1	.
96d-X\	2	.
96cc\	4	.
96b-\	3	.
96d-\	2	.
96B-y\	2	.
96a-X\	4	.
96g\	3	.
96B-\	2	.
96G\	0	.
96f\JJJ)	4	.
*Xcue	*	*
*rscale:1	*	*
!!LO:LB:g=original
=-	=-	=-
*xywh-17:61,3386,3540,529	*	*
1e-X	.	.
=-	=-	=-
(8e-/L	.	.
8dn/	.	.
8f/	.	.
8e-/J	.	.
8qe-/	.	.
8d-X/L	.	.
8c/	.	.
8d-/	.	.
8B-/J)	.	.
=36||	=36||	=36||
!!!OMD: Largo.
!!!OMD-mod: Largo
*k[b-e-a-d-]	*	*
*M2/2	*	*
*met(c|)	*	*
*mmet(c|)	*	*
[1A-	.	.
=37	=37	=37
!LO:MO:mod=!null:null	!	!
!LO:N:xstem:cue:vis	!	!
2A-/]	.	.
2c/	.	.
=38	=38	=38
[1a- [1f	.	.
=39	=39	=39
!LO:MO:mod=!null:null	!	!
!LO:N:xstem:cue:vis	!	!
2a-] 2f/]	.	.
2cc 2e-/	.	.
=40	=40	=40
8qd-/	.	.
[1ff [1a-	.	.
=41	=41	=41
!LO:MO:mod=!null:null	!	!
!LO:N:xstem:cue:vis	!	!
!LO:SIC:o=2ff] 2a-/]	!	!
2ff] 2a-]	.	.
!LO:MO:mod=*null:null	!	!
*Xbrackettup	*	*
*tuplet	*	*
!LO:TUP:b	!	!
6ee- 6f 6An/	.	.
6B-/	.	.
6c/	.	.
=42	=42	=42
8qB-/	.	.
[1dd- [1f	.	.
=43	=43	=43
!LO:MO:mod=!null:null	!	!
!LO:N:xstem:cue:vis	!	!
2dd-] 2f/]	.	.
(4.f-X 4.A-/	.	.
8bb- 8dd-\)	.	.
!!LO:LB:g=original
=44	=44	=44
*xywh-17:76,3807,3613,493	*	*
(4.bb- 4.dd- 4.e- 4.G/	.	.
8bbb- 8ddd-\)	.	.
([2bbb- [2ddd-\	.	.
=45	=45	=45
!LO:MO:mod=!null:null	!	!
!LO:N:xstem:cue:vis	!	!
4bbb-] 4ddd-\]	.	.
4ggg 4bb-\)	.	.
4eee- 4gg\	.	.
4ddd- 4ee-\	.	.
=46	=46	=46
4ccc 4aa-^\	.	.
4eee- 4gg^\	.	.
4aa- 4ff^\	.	.
4ccc 4ee-^\	.	.
=47	=47	=47
4ff 4dd-^\	.	.
4aa- 4cc^\	.	.
4dd- 4b-^\	.	.
[4ff 4a-^\	.	.
=48	=48	=48
*^	*	*
(4ff/]	2g^\	.	.
!LO:SIC:o=2ee-/	!	!	!
2ee-^	.	.	.
.	2e-^\	.	.
!LO:SIC:o=[4dd-/)	!	!	!
[4dd-^)	.	.	.
=49	=49	=49	=49
(4dd-/]	2a-^\	.	.
!LO:SIC:o=2cc/	!	!	!
2cc^	.	.	.
.	2d-^\	.	.
!LO:SIC:o=4b-/)	!	!	!
4b-^)	.	.	.
=50	=50	=50	=50
1a-	(2c\	.	.
.	2dn\)	.	.
*v	*v	*	*
=51	=51	=51
4g 4e-`/	.	.
!	!	!LO:MO:mod=!null:null
!	!	!LO:HP:a
(4e-/	.	<
8qg/	.	.
4f/	.	.
!	!	!LO:MO:mod=[[
4e-/)	.	[
!!LO:LB:g=original
=52	=52	=52
*xywh-17:98,4272,3606,682	*	*
8qa-/	.	.
[1A-	.	.
=53	=53	=53
!LO:MO:mod=!null:null	!	!
!LO:N:xstem:cue:vis	!	!
2A-/]	.	.
2c/	.	.
=54	=54	=54
[1a- [1f	.	.
=55	=55	=55
!LO:MO:mod=!null:null	!	!
!LO:N:xstem:cue:vis	!	!
2a-] 2f/]	.	.
2b- 2d-/	.	.
=56	=56	=56
[1cc [1A-	.	.
=57	=57	=57
!LO:MO:mod=!null:null	!	!
!LO:N:xstem:cue:vis	!	!
2cc] 2A-/]	.	.
2cc 2c/	.	.
=58	=58	=58
[1a- [1f-X	.	.
=59	=59	=59
!LO:MO:mod=!null:null	!	!
!LO:N:xstem:cue:vis	!	!
2a-] 2f-/]	.	.
2b- 2d-/	.	.
=60	=60	=60
1cc 1A-	.	.
=61	=61	=61
1cc 1e-	.	.
=62	=62	=62
1cc 1c	.	.
=63	=63	=63
1cc 1e-	.	.
=64	=64	=64
0cc; 0A-;;	.	.
==	==	==
*-	*-	*-
!!!RDF**kern: > = above
!!!RDF**kern: < = below
!!!filter-modern: shed -e "s/TX(.*):t=P:/tx$1:t=P:/LG" | sic -sq | modori -m | shed -e "s/yy//"
!!!ENC: Berenika Jozajtis
!!!END: 2022-05-11
!!!EED: Katarzyna Serwa
!!!EEV: 2022-05-18
!!!ENC-modern: Andrzej Kubiczek
!!!END-modern: 2022-07-20
!!!ENC-iiif: Natalia Wrzos
!!!END-iiif: 2022-08-30
